resources/images/burn.svg

<svg width="16" height="16" viewBox="0 0 16 16" fill="none" xmlns="http://www.w3.org/2000/svg">
<path d="M6.5 14.5C3.5 14.5 1.5 13.5 1.5 10.5C1.5 5.5 7.5 5.5 5.5 0.5C12.5 2.5 14.5 6.5 14.5 9.5C14.5 13.5 11.5 14.5 8.5 14.5" stroke="#949494" stroke-linecap="round" stroke-linejoin="round"/>
<path d="M6.5 12.5C5.9812 12.4647 5.49275 12.2426 5.12505 11.8749C4.75735 11.5073 4.5353 11.0188 4.5 10.5C4.5 8.5 5.5 8.5 6.5 7.5C6.5 8.5 6.5 9.5 7.5 9.5C8.5 9.5 10.5 7.5 8.5 4.5C11.5 6.5 11.5 7.5 11.5 9.5C11.5581 9.9075 11.5206 10.3229 11.3904 10.7134C11.2602 11.1039 11.0409 11.4588 10.7498 11.7498C10.4588 12.0409 10.1039 12.2602 9.71344 12.3904C9.32295 12.5206 8.9075 12.5581 8.5 12.5" stroke="#FF7C3F" stroke-linecap="round" stroke-linejoin="round"/>
</svg>

<svg xmlns="http://www.w3.org/2000/svg" width="16" height="16" viewBox="0 0 16 16"><path d="M6.5,14.5c-3,0-5-1-5-4,0-5,6-5,4-10,7,2,9,6,9,9,0,4-3,5-6,5" style="fill:none;stroke:#949494;stroke-linecap:round;stroke-linejoin:round"/><path d="M6.5,12.5a2.151,2.151,0,0,1-2-2c0-2,1-2,2-3,0,1,0,2,1,2s3-2,1-5c3,2,3,3,3,5a2.652,2.652,0,0,1-3,3" style="fill:none;stroke:#009688;stroke-linecap:round;stroke-linejoin:round"/></svg>
